X:312
T: EIN JAEGERSMANN VON FEUER
N: E1462
O: Europa, Mitteleuropa, Deutschland, Ober - Hessen; Lahn - Gegend
R: Staende -, Jaeger - Lied
M: 4/4
L: 1/16
K: Bb
F2 | D2F2F2F2F2F2z2F2 | F2F2F2F2G4z2
G2 | F2F2F2e2c2c2z2B2 | A2F2d3cB4z2
F2 | D2F2F2F2F2F2z2F2 | F2F2F2F2G4z2
G2 | F2F2F2e2c2c2z2B2 | A2F2d3cB4z2
F2 | F4d4B6F2 | F3FF2F2G6
G2 | G4e4c6B2 | A2F2A2A2B4z2
F2 | F4d4B6F2 | F3FF2F2G6
G2 | G4e4c6B2 | A2F2A2A2B4z2

@@@ Tune index: 4996
